**kern
*staff1
*tb16
=1-
*clefG2
*k[f#c#g#]
*M3/8
8cc#\
.
8r
.
8r
.
=2
4b#\
.
.
.
8cc#\
.
=3
4b#\
.
.
.
8cc#\
.
=4
(4ee\
.
.
.
8dd\)
.
=5
8cc#\
.
8r
.
8cc#\
.
=6
!!linebreak:original
(4cc#\
.
.
.
8b\)
.
=7
4a/
.
.
.
8r
.
=8
8e/
.
8e/
.
8e/
.
=9
4e/
.
.
.
16fn/LL
16e/JJ
=10
!!linebreak:original
4e/
.
.
.
8r
.
=11
4.r
.
.
.
.
.
=12
8b\
.
8b\
.
8b\
.
=13
8ee\L
.
8dd\J
.
8cc#\
.
=14
(4b\
.
.
.
8cc#\)
.
=15
!!linebreak:original
4dd\
.
.
.
8r
.
=16
8dd\
.
8cc#\
.
8b\
.
=17
4a/
.
.
.
8b\
.
=18
4cc#\
.
.
.
8r
.
=19
!!linebreak:original
8a/
.
8a/
.
8a/
.
=20
16g#\LL
(16a\
16b\
16ccn\
16cc#\
16ddn\JJ
=21
16dd#\LL
8ee\
.
16cc#\JJ)
16ddn\LL
16b\JJ
=22
4a/
.
.
.
8r
.
=23
4r
.
.
.
==
*-
